icons/social_distancing_fill.svg

<svg width="48" height="48" viewBox="0 0 48 48" fill="none" xmlns="http://www.w3.org/2000/svg">
<path d="M36.4629 15.9497C36.0724 16.3403 36.0724 16.9734 36.4629 17.364C36.8534 17.7545 37.4866 17.7545 37.8771 17.364L39.9984 15.2426C40.7795 14.4616 40.7795 13.1953 39.9984 12.4142L37.8771 10.2929C37.4866 9.90237 36.8534 9.90237 36.4629 10.2929C36.0724 10.6834 36.0724 11.3166 36.4629 11.7071L37.7559 13.0001H10.2442L11.5371 11.7072C11.9276 11.3167 11.9276 10.6835 11.5371 10.293C11.1466 9.90248 10.5134 9.90248 10.1229 10.293L8.00156 12.4143C7.22051 13.1954 7.22051 14.4617 8.00156 15.2428L10.1229 17.3641C10.5134 17.7546 11.1466 17.7546 11.5371 17.3641C11.9276 16.9736 11.9276 16.3404 11.5371 15.9499L10.5873 15.0001H37.4125L36.4629 15.9497Z" fill="black"/>
<path d="M15 25.5C15 27.4338 13.4338 29 11.5 29C9.56625 29 8 27.4338 8 25.5C8 23.5662 9.56625 22 11.5 22C13.4338 22 15 23.5662 15 25.5Z" fill="black"/>
<path d="M4 34.2666C4 31.4293 8.99687 30 11.5 30C14.0031 30 19 31.4293 19 34.2666V38H4V34.2666Z" fill="black"/>
<path d="M36.5 29C38.4338 29 40 27.4338 40 25.5C40 23.5662 38.4338 22 36.5 22C34.5662 22 33 23.5662 33 25.5C33 27.4338 34.5662 29 36.5 29Z" fill="black"/>
<path d="M29 34.2666C29 31.4293 33.9969 30 36.5 30C39.0031 30 44 31.4293 44 34.2666V38H29V34.2666Z" fill="black"/>
</svg>

<svg
  xmlns="http://www.w3.org/2000/svg"
  width="24"
  height="24"
  viewBox="0 0 24 24"
  fill="none"
  stroke="currentColor"
  stroke-width="2"
  stroke-linecap="round"
  stroke-linejoin="round"
>
  <path d="M36.463 15.95a1 1 0 0 0 1.414 1.414l2.121-2.121a2 2 0 0 0 0-2.829l-2.12-2.121a1 1 0 1 0-1.415 1.414L37.756 13H10.244l1.293-1.293a1 1 0 0 0-1.414-1.414l-2.121 2.121a2 2 0 0 0 0 2.829l2.12 2.121a1 1 0 0 0 1.415-1.414l-.95-.95h26.826z" />
  <path d="M15 25.5c0 1.934-1.566 3.5-3.5 3.5A3.5 3.5 0 0 1 8 25.5c0-1.934 1.566-3.5 3.5-3.5s3.5 1.566 3.5 3.5" />
  <path d="M4 34.267C4 31.429 8.997 30 11.5 30s7.5 1.43 7.5 4.267V38H4z" />
  <path d="M36.5 29c1.934 0 3.5-1.566 3.5-3.5S38.434 22 36.5 22a3.5 3.5 0 0 0-3.5 3.5c0 1.934 1.566 3.5 3.5 3.5" />
  <path d="M29 34.267C29 31.429 33.997 30 36.5 30s7.5 1.43 7.5 4.267V38H29z" />
</svg>
